img/carbon_clean.svg

<svg width="64" height="64" viewBox="0 0 64 64" fill="none" xmlns="http://www.w3.org/2000/svg">
<path d="M52 40H40V36H52V40ZM60 56H48V52H60V56ZM56 48H44V44H56V48Z" fill="#F2F2F6"/>
<path d="M34.0058 40C33.9907 38.3126 33.5402 36.6577 32.6979 35.1956C31.8555 33.7334 30.6499 32.5135 29.1978 31.654L43.9998 6L40.5398 4L25.3858 30.252C23.526 29.8367 21.5917 29.8943 19.7599 30.4194C17.9281 30.9445 16.2571 31.9205 14.8998 33.258C7.41179 40.48 7.99179 57.364 8.01979 58.08C8.04047 58.5964 8.26027 59.0848 8.63313 59.4428C9.00598 59.8007 9.50293 60.0004 10.0198 60H40.0018C40.4216 60 40.8307 59.8679 41.1712 59.6225C41.5117 59.377 41.7664 59.0307 41.8992 58.6325C42.0319 58.2342 42.036 57.8043 41.9108 57.4037C41.7857 57.003 41.5376 56.6519 41.2018 56.4C34.1218 51.088 34.0058 40.108 34.0058 40ZM23.8598 33.994C25.4605 34.0116 26.9929 34.6457 28.138 35.7643C29.2831 36.883 29.9528 38.4001 30.0078 40C30.0078 40.076 30.0118 40.416 30.0418 40.938L18.2418 35.69C19.0191 35.0491 19.916 34.569 20.8805 34.2779C21.845 33.9867 22.8577 33.8902 23.8598 33.994ZM30.8998 56C29.3012 54.3722 28.2822 52.264 27.9998 50H23.9998C24.143 52.1286 24.8079 54.1892 25.9358 56H21.4898C20.667 53.4045 20.1665 50.7177 19.9998 48H15.9998C16.128 50.7096 16.5744 53.3947 17.3298 56H11.9998C12.0618 52.328 12.5798 44.216 15.6058 38.894L30.6718 45.594C31.3941 49.3531 32.9375 52.9064 35.1918 56H30.8998Z" fill="#424674"/>
</svg>

<svg xmlns="http://www.w3.org/2000/svg" width="64" height="64" fill="none"><path fill="#F2F2F6" d="M52 40H40v-4h12zm8 16H48v-4h12zm-4-8H44v-4h12z"/><path fill="#424674" d="M34.006 40a9.8 9.8 0 0 0-4.808-8.346L44 6l-3.46-2-15.154 26.252A11.4 11.4 0 0 0 14.9 33.258C7.412 40.48 7.992 57.364 8.02 58.08a2 2 0 0 0 2 1.92h29.982a2 2 0 0 0 1.2-3.6c-7.08-5.312-7.196-16.292-7.196-16.4M23.86 33.994A6.22 6.22 0 0 1 30.008 40c0 .076.004.416.034.938l-11.8-5.248a7.6 7.6 0 0 1 5.618-1.696M30.9 56a10.4 10.4 0 0 1-2.9-6h-4c.143 2.129.808 4.19 1.936 6H21.49A33.2 33.2 0 0 1 20 48h-4a34.6 34.6 0 0 0 1.33 8H12c.062-3.672.58-11.784 3.606-17.106l15.066 6.7A26 26 0 0 0 35.192 56z"/></svg>
